X:1
T: Don't Marry Her
C: Heaton & Rotheray
S: Noel <noelbats:onetel.com> tradtunes 2009-3-9
M: 2/4
L: 1/8
K: C
c |\
ee/e/ ec | dd/d/ dG | fg fe | d2 G/A/B/c/ |
ff/f/ fe | dd/d/ dc | dd/d/ dd | G3 c |
e e2 c | d d2 G | fg fe | dG/A/ B/c/d/e/ |
ff/f/ fe | d3 B | cc/c/ c/c/c | c3 g |
eg eg | eg eg | a g3 | e2 de |
f f3 | f2 f2 | f e3 | c2 de |
eg eg | e2 gg | a g3 | e2 de |
f2 fe | d3 B | cc/c/ c/c/c | c3 ||
